packages/ui-icons/svg/Solid/button-and-icon-maker.svg

<svg viewBox="0 0 1920 1920" xmlns="http://www.w3.org/2000/svg">
    <path d="M0 426.667C0 191.025 191.025 0 426.667 0c235.641 0 426.666 191.025 426.666 426.667 0 235.641-191.025 426.666-426.666 426.666C191.025 853.333 0 662.308 0 426.667zm853.333 640.003V1920H0v-853.33h853.333zM1360 1920v-346.67h-346.67v-160H1360v-346.66h160v346.66h346.67v160H1520V1920h-160zm560-1066.667L1440 0 960 853.333h960z"/>
</svg>

<svg viewBox="0 0 1920 1920" xmlns="http://www.w3.org/2000/svg">
    <path d="M0 426.667C0 191.025 191.025 0 426.667 0 662.308 0 853.333 191.025 853.333 426.667 853.333 662.308 662.308 853.333 426.667 853.333 191.025 853.333 0 662.308 0 426.667zM853.333 1066.67V1920H0V1066.67H853.333zM1360 1920V1573.33H1013.33V1413.33L1360 1413.33V1066.67H1520V1413.33H1866.67V1573.33H1520V1920H1360zM1920 853.333 1440 0 960 853.333H1920z"/>
</svg>
